svg/development/braces_line.svg

<?xml version="1.0" encoding="UTF-8"?>
<svg width="24px" height="24px" viewBox="0 0 24 24" version="1.1" xmlns="http://www.w3.org/2000/svg" xmlns:xlink="http://www.w3.org/1999/xlink">
    <title>braces_line</title>
    <g id="页面-1" stroke="none" stroke-width="1" fill="none" fill-rule="evenodd">
        <g id="Development" transform="translate(-144.000000, 0.000000)" fill-rule="nonzero">
            <g id="braces_line" transform="translate(144.000000, 0.000000)">
                 <path d="M24,0 L24,24 L0,24 L0,0 L24,0 Z M12.5934901,23.257841 L12.5819402,23.2595131 L12.5108777,23.2950439 L12.4918791,23.2987469 L12.4918791,23.2987469 L12.4767152,23.2950439 L12.4056548,23.2595131 C12.3958229,23.2563662 12.3870493,23.2590235 12.3821421,23.2649074 L12.3780323,23.275831 L12.360941,23.7031097 L12.3658947,23.7234994 L12.3769048,23.7357139 L12.4804777,23.8096931 L12.4953491,23.8136134 L12.4953491,23.8136134 L12.5071152,23.8096931 L12.6106902,23.7357139 L12.6232938,23.7196733 L12.6232938,23.7196733 L12.6266527,23.7031097 L12.609561,23.275831 C12.6075724,23.2657013 12.6010112,23.2592993 12.5934901,23.257841 L12.5934901,23.257841 Z M12.8583906,23.1452862 L12.8445485,23.1473072 L12.6598443,23.2396597 L12.6498822,23.2499052 L12.6498822,23.2499052 L12.6471943,23.2611114 L12.6650943,23.6906389 L12.6699349,23.7034178 L12.6699349,23.7034178 L12.678386,23.7104931 L12.8793402,23.8032389 C12.8914285,23.8068999 12.9022333,23.8029875 12.9078286,23.7952264 L12.9118235,23.7811639 L12.8776777,23.1665331 C12.8752882,23.1545897 12.8674102,23.1470016 12.8583906,23.1452862 L12.8583906,23.1452862 Z M12.1430473,23.1473072 C12.1332178,23.1423925 12.1221763,23.1452606 12.1156365,23.1525954 L12.1099173,23.1665331 L12.0757714,23.7811639 C12.0751323,23.7926639 12.0828099,23.8018602 12.0926481,23.8045676 L12.108256,23.8032389 L12.3092106,23.7104931 L12.3186497,23.7024347 L12.3186497,23.7024347 L12.3225043,23.6906389 L12.340401,23.2611114 L12.337245,23.2485176 L12.337245,23.2485176 L12.3277531,23.2396597 L12.1430473,23.1473072 Z" id="MingCute" fill-rule="nonzero"></path>
                <path d="M8,3 C8.55228,3 9,3.44772 9,4 C9,4.51283143 8.61395571,4.93550653 8.11662025,4.9932722 L8,5 L7,5 C6.48716857,5 6.06449347,5.38604429 6.0067278,5.88337975 L6,6 L6,10 C6,10.7684 5.71115,11.4692 5.2361,12 C5.663645,12.47772 5.940368,13.09314 5.99143715,13.7716104 L6,14 L6,18 C6,18.51285 6.38604429,18.9355092 6.88337975,18.9932725 L7,19 L8,19 C8.55228,19 9,19.4477 9,20 C9,20.51285 8.61395571,20.9355092 8.11662025,20.9932725 L8,21 L7,21 C5.40232321,21 4.09633941,19.7511226 4.00509271,18.1762773 L4,18 L4,14 C4,13.48715 3.61395571,13.0644908 3.11662025,13.0067275 L3,13 C2.44772,13 2,12.5523 2,12 C2,11.48715 2.38604429,11.0644908 2.88337975,11.0067275 L3,11 C3.51283143,11 3.93550653,10.613973 3.9932722,10.1166239 L4,10 L4,6 C4,4.40232321 5.24892392,3.09633941 6.82372764,3.00509271 L7,3 L8,3 Z M17,3 C18.597725,3 19.903664,4.24892392 19.9949075,5.82372764 L20,6 L20,10 C20,10.51285 20.386027,10.9355092 20.8833761,10.9932725 L21,11 C21.5523,11 22,11.4477 22,12 C22,12.51285 21.613973,12.9355092 21.1166239,12.9932725 L21,13 C20.48715,13 20.0644908,13.386027 20.0067275,13.8833761 L20,14 L20,18 C20,19.597725 18.7511226,20.903664 17.1762773,20.9949075 L17,21 L16,21 C15.4477,21 15,20.5523 15,20 C15,19.48715 15.386027,19.0644908 15.8833761,19.0067275 L16,19 L17,19 C17.51285,19 17.9355092,18.613973 17.9932725,18.1166239 L18,18 L18,14 C18,13.2316 18.2889,12.5308 18.7639,12 C18.3364,11.52228 18.059641,10.90686 18.0085642,10.2283896 L18,10 L18,6 C18,5.48716857 17.613973,5.06449347 17.1166239,5.0067278 L17,5 L16,5 C15.4477,5 15,4.55228 15,4 C15,3.48716857 15.386027,3.06449347 15.8833761,3.0067278 L16,3 L17,3 Z" id="形状" fill="#09244B"></path>
            </g>
        </g>
    </g>
</svg>

<svg xmlns="http://www.w3.org/2000/svg" width="24" height="24"><g fill="none" fill-rule="nonzero"><path d="M24 0v24H0V0h24ZM12.593 23.258l-.011.002-.071.035-.02.004-.014-.004-.071-.035c-.01-.004-.019-.001-.024.005l-.004.01-.017.428.005.02.01.013.104.074.015.004.012-.004.104-.074.012-.016.004-.017-.017-.427c-.002-.01-.009-.017-.017-.018Zm.265-.113-.013.002-.185.093-.01.01-.003.011.018.43.005.012.008.007.201.093c.012.004.023 0 .029-.008l.004-.014-.034-.614c-.003-.012-.01-.02-.02-.022Zm-.715.002a.023.023 0 0 0-.027.006l-.006.014-.034.614c0 .012.007.02.017.024l.015-.002.201-.093.01-.008.004-.011.017-.43-.003-.012-.01-.01-.184-.092Z"/><path fill="#09244B" d="M8 3a1 1 0 0 1 .117 1.993L8 5H7a1 1 0 0 0-.993.883L6 6v4c0 .768-.289 1.47-.764 2 .428.478.704 1.093.755 1.772L6 14v4a1 1 0 0 0 .883.993L7 19h1a1 1 0 0 1 .117 1.993L8 21H7a3 3 0 0 1-2.995-2.824L4 18v-4a1 1 0 0 0-.883-.993L3 13a1 1 0 0 1-.117-1.993L3 11a1 1 0 0 0 .993-.883L4 10V6a3 3 0 0 1 2.824-2.995L7 3h1Zm9 0a3 3 0 0 1 2.995 2.824L20 6v4a1 1 0 0 0 .883.993L21 11a1 1 0 0 1 .117 1.993L21 13a1 1 0 0 0-.993.883L20 14v4a3 3 0 0 1-2.824 2.995L17 21h-1a1 1 0 0 1-.117-1.993L16 19h1a1 1 0 0 0 .993-.883L18 18v-4c0-.768.289-1.47.764-2a2.988 2.988 0 0 1-.755-1.772L18 10V6a1 1 0 0 0-.883-.993L17 5h-1a1 1 0 0 1-.117-1.993L16 3h1Z"/></g></svg>
